X: 409
T: Bluegrass Stomp
C:Bill Monroe
B: jims roots
M:4/4
L:1/8
Q: 1/4=100
K:D
V:1 
%Q:420
xD FA |: "D"dd cd AD zD | dd cd AD zD | dd cd AD FA |
"D7"=c2 Bc A(D D2) | "G"G,B, D [=F2A] FE (D | D)A zA =FE DB, |
"D"D2 DD (3CCC (3B,B,B, | [D2A,2] [D2A,2] [DA,]A BA | "A"=c2 Bc A(D D2) |
Dd2 A=F ED B,| "D"D2 DD (3=CCC (3B,B,B, | A,2 [D2A,2] [D2A,2] DD ||
(3[dA][dA][dA] (3[dA][dA][dA] (3[dA][dA][dA] (3[dA][dA][dA] | [d2A2] z6| (3[dA][dA][dA] (3[dA][dA][dA] (3[dA][dA][dA] (3[dA][dA][dA] |
"D"D2 DD (3CCC (3B,B,B, | [D2A,2] [D2A,2] [DA,]A BA | "A"=c2 Bc A(D D2) |
Dd2 A=F ED B, | [1  "D"D2 DD (3CCC (3B,B,B, | [D2A,2] [D2A,2] [DA,]A BA:|
V:2 "D"D2 AA BA cA | [F4d4
|]
V:F2C2 
V:[F2C2 
 [F2C2] [F2C2] | "G"G,B, D [=F2A] FE (D | D)A zD =FE DB, |
% abcbook-tune_id 6298c245c7956fe83e3427a9


% abcbook-boost 0
% abcbook-tablature 
% abcbook-transpose 
% abcbook-lastupdated 1654178373407
% abcbook-soundfonts 
% abcbook-repeats 1


